/* XPM */
static char *DTVEmulator[] = {
/* columns rows colors chars-per-pixel */
"48 48 142 2 ",
"   c #040404",
".  c #0B0B0B",
"X  c #131313",
"o  c #1D1D1D",
"O  c #231C1F",
"+  c #3F1224",
"@  c #222222",
"#  c #2C2C2C",
"$  c #343434",
"%  c #3B3B3B",
"&  c #441629",
"*  c #461B2E",
"=  c #6F0933",
"-  c #720B38",
";  c #7B0B3B",
":  c #77113D",
">  c #7A133E",
",  c #4F2939",
"<  c #56293B",
"1  c #413E3F",
"2  c #7F1A42",
"3  c #5C3746",
"4  c #434343",
"5  c #4C4C4C",
"6  c #535353",
"7  c #5B5B5B",
"8  c #694654",
"9  c #6C4C59",
"0  c #636363",
"q  c #6C6C6C",
"w  c #747474",
"e  c gray48",
"r  c #9B0243",
"t  c #8D1D4F",
"y  c #B6024D",
"u  c #B9044D",
"i  c #BF0550",
"p  c #B81658",
"a  c #BB1B58",
"s  c #85284B",
"d  c #8A2555",
"f  c #8D2C51",
"g  c #992157",
"h  c #94285A",
"j  c #BF335C",
"k  c #C50046",
"l  c #C6014C",
"z  c #C20652",
"x  c #C90C5A",
"c  c #C91D56",
"v  c #C7135B",
"b  c #C3205C",
"n  c #C2295C",
"m  c #CA2B5F",
"M  c #C23161",
"N  c #CA3460",
"B  c #CB3A62",
"V  c #91445F",
"C  c #924560",
"Z  c #984964",
"A  c #96426C",
"S  c #B14365",
"D  c #AE4172",
"F  c #B95776",
"G  c #B95F7A",
"H  c #CD4364",
"J  c #C24668",
"K  c #CB4769",
"L  c #C44C6A",
"P  c #CF4A6A",
"I  c #D04E6B",
"U  c #C6546E",
"Y  c #CF516D",
"T  c #D1546E",
"R  c #CF5E76",
"E  c #C2517E",
"W  c #C15C7F",
"Q  c #D05570",
"!  c #D35D74",
"~  c #CF6077",
"^  c #C3647F",
"/  c #CE697E",
"(  c #D36077",
")  c #D6667A",
"_  c #D66E7F",
"`  c #D86A7E",
"'  c #D4707F",
"]  c #B35E87",
"[  c #986985",
"{  c #AF6C8E",
"}  c #BE6781",
"|  c #B26A8E",
" . c #BC6E94",
".. c #A57793",
"X. c #AA7A97",
"o. c #AD7C98",
"O. c #B07092",
"+. c #B87091",
"@. c #C46789",
"#. c #C87387",
"$. c #CA728B",
"%. c #CA798C",
"&. c #D77485",
"*. c #D47A8A",
"=. c #848484",
"-. c #8B8B8B",
";. c #949494",
":. c #9B9B9B",
">. c #B58BA5",
",. c #A3A3A3",
"<. c #ABABAB",
"1. c gray72",
"2. c #D38191",
"3. c #C088A1",
"4. c #CE90A4",
"5. c #C399A6",
"6. c #C897AB",
"7. c #DE9CA9",
"8. c #E09FA9",
"9. c #D4A0AB",
"0. c #CFA6B1",
"q. c #CFAEBB",
"w. c #D1A4B3",
"e. c #D9AEB6",
"r. c #D7ADB8",
"t. c #D8B4BC",
"y. c #DBB8BF",
"u. c #E0A1AC",
"i. c #DDB9C1",
"p. c #E0BDC4",
"a. c #C6C6C6",
"s. c gray80",
"d. c #D5D5D5",
"f. c gray86",
"g. c #E7C0C4",
"h. c #E4C8CB",
"j. c #E6E6E6",
"k. c #ECECEC",
"l. c #EDFAFB",
"z. c #F3F3F3",
"x. c #FFFFFF",
"c. c None",
/* pixels */
"c.c.c.c.c.c.c.c.c.c.c.c.c.c.c.c.c.c.c.c.c.c.c.c.c.c.c.c.c.c.c.c.c.c.c.c.c.c.c.c.c.c.c.c.c.c.c.c.",
"c.c.c.c.c.c.c.c.c.c.c.c.c.c.c.c.c.c.c.c.c.c.c.c.c.c.c.c.c.c.c.c.c.c.c.c.c.c.c.c.c.c.c.c.c.c.c.c.",
"c.c.c.c.c.c.c.c.c.c.c.c.c.c.c.c.c.c.c.c.c.c.c.c.c.c.c.c.c.c.c.c.c.c.c.c.c.c.c.c.c.c.c.c.c.c.c.c.",
"c.c.c.c.c.c.c.c.c.c.c.c.c.c.c.c.c.c.c.c.c.c.c.c.c.c.c.c.c.c.c.c.c.c.c.c.c.c.c.c.c.c.c.c.c.c.c.c.",
"c.c.c.c.c.c.c.c.c.c.c.c.c.c.c.c.c.c.c.c.c.c.c.c.c.c.c.c.c.c.c.c.c.c.c.c.c.c.c.c.c.c.c.c.c.c.c.c.",
"c.c.c.c.c.c.c.c.c.c.c.c.c.c.c.c.c.c.c.c.c.c.c.c.c.c.c.c.c.c.c.c.c.c.c.c.c.c.c.c.c.c.c.c.c.c.c.c.",
"c.c.c.c.c.c.c.c.c.c.c.c.c.c.c.c.c.c.c.c.c.c.c.c.c.c.c.c.c.c.c.c.c.c.c.c.c.c.c.c.c.c.c.c.c.c.c.c.",
"c.c.c.c.c.c.c.c.c.c.c.c.c.c.c.c.c.c.c.c.c.c.c.c.c.c.c.c.c.c.c.c.c.c.c.c.c.c.c.c.c.c.c.c.c.c.c.c.",
"c.c.c.c.c.c.c.c.c.c.c.c.c.c.c.c.c.c.c.c.c.c.c.c.c.c.c.c.c.c.c.c.c.c.c.c.c.c.c.c.c.c.c.c.c.c.c.c.",
"c.c.c.c.c.c.c.c.c.c.c.c.c.c.c.c.c.c.c.c.c.c.c.c.c.c.c.c.c.c.c.c.c.c.c.c.c.c.c.c.c.c.c.c.c.c.c.c.",
"c.c.c.c.c.c.c.c.c.c.c.c.c.c.c.c.c.c.c.c.c.c.c.c.c.c.c.c.c.c.c.c.c.c.c.c.c.c.c.c.c.c.c.c.c.c.c.c.",
"c.c.c.6 6 6 6 6 6 6 6 6 6 6 6 6 6 6 6 6 6 6 6 6 6 6 6 6 6 6 6 6 6 6 6 5 6 6 6 6 6 6 6 6 6 c.c.c.",
"c.c.c.7 . % % $ $ $ $ # # # @ @ @ o o X X X . . .                                       6 c.c.c.",
"c.c.c.7 % e w w q q 0 0 6 6 5 4 % % $ $ # @ o o X X .                                   6 c.c.c.",
"c.c.c.6 % w w w q 0 0 7 7 6 5 5 4 % $ $ # @ @ o X X . .                                 6 c.c.c.",
"c.c.c.7 % w w q q 0 0 7 6 6 5 4 4 % $ # # @ o o X X .                                   6 c.c.c.",
"c.c.c.7 % q q q 0 0 0 7 8 V G ^ S s , # # @ @ o X X   .       .   .           .         6 c.c.c.",
"c.c.c.6 $ q q q 0 0 7 V 7.h.p.9.' ` M > # @ @ o X . .   . . .   .   . . . . . . . . . . 6 c.c.c.",
"c.c.c.7 $ q 0 0 0 7 C g.i.*._ ) ` ( ! b : @ o o . $ % X . . . . . o 5 % . . . . . . .   6 c.c.c.",
"c.c.c.6 $ 0 0 0 0 9 u.y.*.u.&.2.R Q Y B y * o X . d.x.# . . . X <.x.x.x.z.7 . . . . . . 6 c.c.c.",
"c.c.c.6 $ 0 0 7 7 Z h.*.u.l.%.r.U I H N i ; X . X d.x.# X X . =.x.d.# 6 x.z.o X X . X . 6 c.c.c.",
"c.c.c.7 # 7 7 7 7 } t._ &.#.! r.L K B m z r X X X d.x.# X . X f.x.6 X . . X . X X X X . 6 c.c.c.",
"c.c.c.6 # 7 6 6 6 #.e.) ) ! ! w.J 4.6.3.>.g X X X d.x.# X X X x.x.$ % x.x.x.5 X X X X . 6 c.c.c.",
"c.c.c.6 # 6 6 6 6 F t.! ( Q Y 0.j n a u O.d X X X d.x.$ X X X k.x.6 @ w a.x.5 X X X X . 6 c.c.c.",
"c.c.c.7 @ 5 6 5 5 f t./ Y I K q.W b z x X.- X X X d.x.=.w w 5 <.x.1.# % j.x.5 X X X X . 6 c.c.c.",
"c.c.c.6 # 5 5 5 5 3 E 0.H H N @.+.p l  .A + o o o f.x.x.x.x.:.$ d.x.x.x.s.x.6 X o o o . 6 c.c.c.",
"c.c.c.6 @ 5 4 5 4 4 2  .5.K c l k v  .[ = o o o o 0 w w e w 6 o # 0 e % 4 w $ o o o o . 6 c.c.c.",
"c.c.c.7 @ 4 4 4 4 1 1 2 D o.{ ] | ..A = O o o o o o o o o o o o o o o o o o o o o o o X 6 c.c.c.",
"c.c.c.6 o 4 4 % 1 % % % < 2 t h t - & o @ o o o o o o @ o o @ o @ o @ o o o @ o o o o X 6 c.c.c.",
"c.c.c.6 @ % 4 % % % % $ $ @ @ @ @ O @ @ o @ @ @ @ @ @ @ @ @ @ @ @ @ @ @ @ @ @ @ @ @ o X 6 c.c.c.",
"c.c.c.6 o % % $ % $ $ $ @ @ @ @ @ @ @ @ @ @ @ @ @ @ @ @ @ @ @ @ @ @ @ @ @ @ @ @ @ @ @ X 6 c.c.c.",
"c.c.c.6 o % $ % % $ # @ @ @ @ @ @ @ @ @ # @ @ @ @ @ @ @ @ @ @ @ @ @ @ @ @ @ @ @ @ @ @ X 6 c.c.c.",
"c.c.c.6 . o X o o X X X X X X X X X X X X X X X X X X X X X X X X X X X X X X X X X X   6 c.c.c.",
"c.c.c.6 q q q q q q q q q q q q q q q q q q q q q q q q q q q q w q q q q q q q q q q q 6 c.c.c.",
"c.c.c.6 6 6 6 6 6 6 6 6 6 6 6 6 6 6 6 6 6 6 6 6 6 6 6 6 6 6 6 6 6 6 6 6 6 6 6 6 6 6 6 6 6 c.c.c.",
"c.c.c.6 6 6 6 6 6 6 6 6 6 6 6 6 6 6 6 6 6 6 6 6 6 6 6 6 6 6 6 6 6 6 6 6 6 6 6 6 6 6 6 6 6 c.c.c.",
"c.c.c.c.c.c.c.c.c.c.c.c.c.X X $ c.c.c.c.c.c.c.c.c.c.c.c.c.c.c.c.% . X c.c.c.c.c.c.c.c.c.c.c.c.c.",
"c.c.c.c.c.c.c.c.c.c.c.c.:.=.=.c.c.c.c.c.c.c.c.c.c.c.c.c.c.c.c.c.c.=.=.:.c.c.c.c.c.c.c.c.c.c.c.c.",
"c.c.c.c.c.c.c.c.c.c.c.c.c.,.;.;.c.c.c.c.c.c.c.c.c.c.c.c.c.c.c.:.:.:.,.c.c.c.c.c.c.c.c.c.c.c.c.c.",
"c.c.c.c.c.c.c.c.c.c.c.c.c.c.,.;.5 =.:.:.;.-.-.=.e e q 0 7 7 7 7 q <.a.c.c.c.c.c.c.c.c.c.c.c.c.c.",
"c.c.c.c.c.c.c.c.c.c.c.c.c.c.c.=.<.,.<.,.,.:.,.:.:.;.;.-.-.=.=.=.:.q c.c.c.c.c.c.c.c.c.c.c.c.c.c.",
"c.c.c.c.c.c.c.c.c.c.c.c.c.c.c.c.c.c.c.c.c.c.c.c.c.c.c.c.c.c.c.c.c.c.c.c.c.c.c.c.c.c.c.c.c.c.c.c.",
"c.c.c.c.c.c.c.c.c.c.c.c.c.c.c.c.c.c.c.c.c.c.c.c.c.c.c.c.c.c.c.c.c.c.c.c.c.c.c.c.c.c.c.c.c.c.c.c.",
"c.c.c.c.c.c.c.c.c.c.c.c.c.c.c.c.c.c.c.c.c.c.c.c.c.c.c.c.c.c.c.c.c.c.c.c.c.c.c.c.c.c.c.c.c.c.c.c.",
"c.c.c.c.c.c.c.c.c.c.c.c.c.c.c.c.c.c.c.c.c.c.c.c.c.c.c.c.c.c.c.c.c.c.c.c.c.c.c.c.c.c.c.c.c.c.c.c.",
"c.c.c.c.c.c.c.c.c.c.c.c.c.c.c.c.c.c.c.c.c.c.c.c.c.c.c.c.c.c.c.c.c.c.c.c.c.c.c.c.c.c.c.c.c.c.c.c.",
"c.c.c.c.c.c.c.c.c.c.c.c.c.c.c.c.c.c.c.c.c.c.c.c.c.c.c.c.c.c.c.c.c.c.c.c.c.c.c.c.c.c.c.c.c.c.c.c.",
"c.c.c.c.c.c.c.c.c.c.c.c.c.c.c.c.c.c.c.c.c.c.c.c.c.c.c.c.c.c.c.c.c.c.c.c.c.c.c.c.c.c.c.c.c.c.c.c."
};
